X: 303
M: 2/2
L: 1/8
K: G
|: "4.F."d2ef |\
g2d2 edcB | A2G2 d2g2 | f2g2 agfe | d4 d2ef |\
g2d2 edcB | A2G2 Bcde | ABcd GABc | !+!A4 G2B2 |

